storage/app/icons/phosphoricons/bold/briefcase-metal-bold.svg

<svg xmlns="http://www.w3.org/2000/svg" fill="currentColor" viewBox="0 0 256 256"><path d="M216 52h-36V40a28 28 0 0 0-28-28h-48a28 28 0 0 0-28 28v12H40a20 20 0 0 0-20 20v128a20 20 0 0 0 20 20h176a20 20 0 0 0 20-20V72a20 20 0 0 0-20-20M44 120h168v32H44Zm56-80a4 4 0 0 1 4-4h48a4 4 0 0 1 4 4v12h-56Zm112 36v20H44V76ZM44 196v-20h168v20Z"/></svg>

<svg xmlns="http://www.w3.org/2000/svg" viewBox="0 0 256 256" fill="currentColor"><path d="M216,52H180V40a28,28,0,0,0-28-28H104A28,28,0,0,0,76,40V52H40A20,20,0,0,0,20,72V200a20,20,0,0,0,20,20H216a20,20,0,0,0,20-20V72A20,20,0,0,0,216,52ZM44,120H212v32H44Zm56-80a4,4,0,0,1,4-4h48a4,4,0,0,1,4,4V52H100ZM212,76V96H44V76ZM44,196V176H212v20Z"/></svg>
